src/icons/svg/activity.svg

<?xml version="1.0" encoding="UTF-8"?>
<svg width="138px" height="134px" viewBox="0 0 138 134" version="1.1" xmlns="http://www.w3.org/2000/svg" xmlns:xlink="http://www.w3.org/1999/xlink">
    <title>activity</title>
    <g id="页面-1" stroke="none" stroke-width="1" fill="none" fill-rule="evenodd">
        <g id="activity" fill="#3E3A39" fill-rule="nonzero">
            <path d="M125.454545,123.012 C125.454545,123.30102 125.310273,123.469176 125.435727,123.484941 L12.7900909,123.553255 C12.7399091,123.521725 12.5454545,123.332549 12.5454545,123.012 L12.5454545,44.6614118 L125.454545,44.6614118 L125.454545,123.012 Z M12.5454545,18.865098 C12.5454545,18.5813333 12.6709091,18.4131765 12.5642727,18.386902 L37.6363636,18.386902 L37.6363636,21.0196078 C37.6363636,23.9218101 40.4447593,26.2745098 43.9090909,26.2745098 C47.3734225,26.2745098 50.1818182,23.9218101 50.1818182,21.0196078 L50.1818182,18.3921569 L87.8181818,18.3921569 L87.8181818,21.0196078 C87.8181818,23.9218101 90.6265775,26.2745098 94.0909091,26.2745098 C97.5552407,26.2745098 100.363636,23.9218101 100.363636,21.0196078 L100.363636,18.3921569 L125.260091,18.3921569 C125.385308,18.5275639 125.454545,18.6938135 125.454545,18.865098 L125.454545,34.1568627 L12.5454545,34.1568627 L12.5454545,18.865098 Z M125.423182,7.88235294 L100.363636,7.88235294 L100.363636,5.25490196 C100.363636,2.35269975 97.5552407,0 94.0909091,0 C90.6265775,0 87.8181818,2.35269975 87.8181818,5.25490196 L87.8181818,7.88235294 L50.1818182,7.88235294 L50.1818182,5.25490196 C50.1818182,2.35269975 47.3734225,0 43.9090909,0 C40.4447593,0 37.6363636,2.35269975 37.6363636,5.25490196 L37.6363636,7.88235294 L12.489,7.88235294 C5.60154545,7.88235294 0,12.811451 0,18.865098 L0,123.017255 C0,129.076157 5.60781818,134 12.4952727,134 L125.504727,134 C132.392182,134 138,129.076157 138,123.017255 L138,18.865098 C138,12.8061961 132.360818,7.87709804 125.423182,7.87709804 L125.423182,7.88235294 Z" id="形状"></path>
            <path d="M44.3,76.5714286 L94.7,76.5714286 C98.1793939,76.5714286 101,74.2049337 101,71.2857143 C101,68.3664949 98.1793939,66 94.7,66 L44.3,66 C40.8206061,66 38,68.3664949 38,71.2857143 C38,74.2049337 40.8206061,76.5714286 44.3,76.5714286 M44.3,103 L94.7,103 C98.1793939,103 101,100.633505 101,97.7142857 C101,94.7950663 98.1793939,92.4285714 94.7,92.4285714 L44.3,92.4285714 C40.8206061,92.4285714 38,94.7950663 38,97.7142857 C38,100.633505 40.8206061,103 44.3,103" id="形状"></path>
        </g>
    </g>
</svg>

<svg width="138" height="134" xmlns="http://www.w3.org/2000/svg"><g fill="currentColor" fill-rule="nonzero"><path d="M125.455 123.012c0 .289-.145.457-.02.473l-112.645.068a.684.684 0 0 1-.245-.541v-78.35h112.91v78.35zM12.545 18.865c0-.284.126-.452.02-.478h25.071v2.633c0 2.902 2.809 5.255 6.273 5.255 3.464 0 6.273-2.353 6.273-5.255v-2.628h37.636v2.628c0 2.902 2.809 5.255 6.273 5.255 3.464 0 6.273-2.353 6.273-5.255v-2.628h24.896a.697.697 0 0 1 .195.473v15.292H12.545V18.865zM125.423 7.882h-25.06V5.255c0-2.902-2.808-5.255-6.272-5.255-3.464 0-6.273 2.353-6.273 5.255v2.627H50.182V5.255C50.182 2.353 47.373 0 43.909 0c-3.464 0-6.273 2.353-6.273 5.255v2.627H12.49C5.602 7.882 0 12.812 0 18.865v104.152C0 129.077 5.608 134 12.495 134h113.01c6.887 0 12.495-4.924 12.495-10.983V18.865c0-6.059-5.64-10.988-12.577-10.988v.005z"/><path d="M44.3 76.571h50.4c3.48 0 6.3-2.366 6.3-5.285 0-2.92-2.82-5.286-6.3-5.286H44.3c-3.48 0-6.3 2.366-6.3 5.286 0 2.919 2.82 5.285 6.3 5.285m0 26.429h50.4c3.48 0 6.3-2.366 6.3-5.286 0-2.919-2.82-5.285-6.3-5.285H44.3c-3.48 0-6.3 2.366-6.3 5.285 0 2.92 2.82 5.286 6.3 5.286"/></g></svg>
